X:1
T:The Kingdom Is Coming
T:Rigdon McCoy Mcintosh
T:The Kingdom Is Coming
T:Public Domain
T:Public Domain
C:Rigdon McCoy Mcintosh
Z:Public Domain
%%score ( 1 2 ) ( 3 4 )
L:1/8
M:4/4
K:Eb
V:1 treble 
V:2 treble 
V:3 bass 
V:4 bass 
V:1
 E2 | [EG]2 [EG][EG] [EG]2 E[EG] | [GB]2 [GB][GB] [GB]2 [EG][EB] | [Ge]2 [Bd][Ac] [GB]2 E[EG] | %4
w: 1.~From|the dark plac- es of earth’s|en rac- es, O see how|the thick sha- dows fly! The|
w: 2.~The|light is glanc- ing o’er ar-|ad- vanc- ing To con- quer|the king- doms of sin; Our|
w: 3.~With|ing and sing- ing, and ju-|lant ring- ing, Their arms of|re- bel- lion cast down; At|
 [DF]6 E2 | [EG]2 [EG][EG] [EG]2 E[EG] | [GB]2 [GB][GB] [GB]2 [EG][EB] | %7
w: of sal-|tion a- wakes ev- ery na-|Come o- ver and help us,|
w: shall pos-|them, His pre- sence shall bless|His beau- ty shall en- ter|
w: ev- ery|tion the Lord of sal- va-|Their King and Re- deem- er|
 [Ee]2 [EB][Ec] [EG]2 [EG][DF] | E6 || [GB]2 | [Ac]2 [Ac][Ac] [Ac][Bd] [ce]2 | %11
w: they cry. * * * *||||
w: them in. The king- dom is|com-|O|tell ye the stor- y, God’s|
w: shall crown! * * * *||||
 [GB]2 [GB][GB] [GB]2 [EB][GB] | [Ac]2 [Ac][Ac] [Ac][Bd] [ce]2 | [GB]6 |] %14
w: |||
w: ban- ner ex- alt- ed shall|be! * * * * *||
w: |||
V:2
 E2 | x6 E x | x8 | x6 E x | x6 E2 | x6 E x | x8 | x8 | E6 || x2 | x8 | x8 | x8 | x6 |] %14
w: all|heath-||voice|va-|tion,|||||||||
w: sun-|mies||Lord|sess|them,|||ing,||||||
w: shout-|bi-||last|na-|tion|||||||||
V:3
 [E,G,]2 | [E,B,]2 [E,B,][E,B,] [E,B,]2 [E,G,][E,B,] | [E,E]2 [E,E][E,E] [E,E]2 [E,B,][E,G,] | %3
w: ~|~ ~ ~ ~ ~ ~|~ ~ ~ ~ ~ ~|
 [E,B,]2 [E,E][E,E] [E,E]2 [E,G,][E,B,] | [B,,B,]6 [E,G,]2 | %5
w: ~ ~ ~ ~ ~ ~|~ The|
 [E,B,]2 [E,B,][E,B,] [E,B,]2 [E,G,][E,B,] | [E,E]2 [E,E][E,E] [E,E]2 [E,B,][E,G,] | %7
w: earth shall be full of His|know- ledge and glor- y, As|
 [E,G,]2 [G,B,][A,E] B,2 [B,,B,][B,,A,] | [E,G,]6 || [E,E]2 | [A,E]2 [A,E][A,E] [A,E][A,E] [A,E]2 | %11
w: wa- ters that co- ver the||||
 [E,E]2 [E,E][E,E] [E,E]2 [E,B,][E,E] | [A,E]2 [A,E][A,E] [A,E][A,E] [A,E]2 | [E,E]6 |] %14
w: |||
V:4
 x2 | x8 | x8 | x8 | x8 | x8 | x8 | x4 B,2 x2 | x6 || x2 | x8 | x8 | x8 | x6 |] %14
w: |||||||sea.|||||||

